images/51003164.svg

<?xml version="1.0" encoding="UTF-8"?>
<svg xmlns="http://www.w3.org/2000/svg" xmlns:xlink="http://www.w3.org/1999/xlink" width="300pt" height="300pt" viewBox="0 0 300 300" version="1.1">
<defs>
<g>
<symbol overflow="visible" id="glyph0-0">
<path style="stroke:none;" d="M 0.546875 1.9375 L 0.546875 -7.75 L 6.046875 -7.75 L 6.046875 1.9375 Z M 1.171875 1.328125 L 5.4375 1.328125 L 5.4375 -7.140625 L 1.171875 -7.140625 Z M 1.171875 1.328125 "/>
</symbol>
<symbol overflow="visible" id="glyph0-1">
<path style="stroke:none;" d="M 4.328125 -7.28125 C 3.546875 -7.28125 2.921875 -6.984375 2.453125 -6.390625 C 1.992188 -5.804688 1.765625 -5.007812 1.765625 -4 C 1.765625 -2.988281 1.992188 -2.1875 2.453125 -1.59375 C 2.921875 -1.007812 3.546875 -0.71875 4.328125 -0.71875 C 5.117188 -0.71875 5.742188 -1.007812 6.203125 -1.59375 C 6.660156 -2.1875 6.890625 -2.988281 6.890625 -4 C 6.890625 -5.007812 6.660156 -5.804688 6.203125 -6.390625 C 5.742188 -6.984375 5.117188 -7.28125 4.328125 -7.28125 Z M 4.328125 -8.171875 C 5.453125 -8.171875 6.351562 -7.789062 7.03125 -7.03125 C 7.707031 -6.28125 8.046875 -5.269531 8.046875 -4 C 8.046875 -2.738281 7.707031 -1.726562 7.03125 -0.96875 C 6.351562 -0.21875 5.453125 0.15625 4.328125 0.15625 C 3.203125 0.15625 2.300781 -0.21875 1.625 -0.96875 C 0.957031 -1.71875 0.625 -2.726562 0.625 -4 C 0.625 -5.269531 0.957031 -6.28125 1.625 -7.03125 C 2.300781 -7.789062 3.203125 -8.171875 4.328125 -8.171875 Z M 4.328125 -8.171875 "/>
</symbol>
<symbol overflow="visible" id="glyph0-2">
<path style="stroke:none;" d="M 1.078125 -8.015625 L 2.546875 -8.015625 L 6.09375 -1.3125 L 6.09375 -8.015625 L 7.15625 -8.015625 L 7.15625 0 L 5.6875 0 L 2.125 -6.703125 L 2.125 0 L 1.078125 0 Z M 1.078125 -8.015625 "/>
</symbol>
<symbol overflow="visible" id="glyph0-3">
<path style="stroke:none;" d="M 1.078125 -8.015625 L 2.171875 -8.015625 L 2.171875 -4.734375 L 6.109375 -4.734375 L 6.109375 -8.015625 L 7.1875 -8.015625 L 7.1875 0 L 6.109375 0 L 6.109375 -3.8125 L 2.171875 -3.8125 L 2.171875 0 L 1.078125 0 Z M 1.078125 -8.015625 "/>
</symbol>
</g>
</defs>
<g id="surface17173">
<rect x="0" y="0" width="300" height="300" style="fill:rgb(100%,100%,100%);fill-opacity:1;stroke:none;"/>
<path style="fill:none;stroke-width:1.2;stroke-linecap:butt;stroke-linejoin:miter;stroke:rgb(100%,0%,0%);stroke-opacity:1;stroke-miterlimit:10;" d="M 222.925781 213.71875 L 218.742188 226.027344 "/>
<path style="fill:none;stroke-width:1.2;stroke-linecap:butt;stroke-linejoin:miter;stroke:rgb(0%,0%,0%);stroke-opacity:1;stroke-miterlimit:10;" d="M 218.742188 226.027344 L 214.558594 238.335938 "/>
<path style="fill:none;stroke-width:1.2;stroke-linecap:butt;stroke-linejoin:miter;stroke:rgb(100%,0%,0%);stroke-opacity:1;stroke-miterlimit:10;" d="M 222.925781 213.71875 L 214.359375 203.941406 "/>
<path style="fill:none;stroke-width:1.2;stroke-linecap:butt;stroke-linejoin:miter;stroke:rgb(0%,0%,0%);stroke-opacity:1;stroke-miterlimit:10;" d="M 214.359375 203.941406 L 205.789062 194.167969 "/>
<path style=" stroke:none;fill-rule:nonzero;fill:rgb(100%,100%,100%);fill-opacity:1;" d="M 218.925781 207.21875 L 227.925781 207.21875 L 227.925781 220.21875 L 218.925781 220.21875 Z M 218.925781 207.21875 "/>
<g style="fill:rgb(100%,0%,0%);fill-opacity:1;">
  <use xlink:href="#glyph0-1" x="218.925781" y="217.120117"/>
</g>
<path style="fill:none;stroke-width:1.2;stroke-linecap:butt;stroke-linejoin:miter;stroke:rgb(0%,0%,0%);stroke-opacity:1;stroke-miterlimit:10;" d="M 205.789062 194.167969 L 180.289062 199.230469 "/>
<path style="fill:none;stroke-width:1.2;stroke-linecap:butt;stroke-linejoin:miter;stroke:rgb(0%,0%,0%);stroke-opacity:1;stroke-miterlimit:10;" d="M 202.046875 188.671875 L 181.648438 192.722656 "/>
<path style="fill:none;stroke-width:1.2;stroke-linecap:butt;stroke-linejoin:miter;stroke:rgb(0%,0%,0%);stroke-opacity:1;stroke-miterlimit:10;" d="M 214.15625 169.550781 L 205.789062 194.167969 "/>
<path style="fill:none;stroke-width:1.2;stroke-linecap:butt;stroke-linejoin:miter;stroke:rgb(0%,0%,0%);stroke-opacity:1;stroke-miterlimit:10;" d="M 180.289062 199.230469 L 163.15625 179.679688 "/>
<path style="fill:none;stroke-width:1.2;stroke-linecap:butt;stroke-linejoin:miter;stroke:rgb(0%,0%,0%);stroke-opacity:1;stroke-miterlimit:10;" d="M 163.15625 179.679688 L 171.519531 155.0625 "/>
<path style="fill:none;stroke-width:1.2;stroke-linecap:butt;stroke-linejoin:miter;stroke:rgb(0%,0%,0%);stroke-opacity:1;stroke-miterlimit:10;" d="M 169.785156 179.183594 L 176.476562 159.492188 "/>
<path style="fill:none;stroke-width:1.2;stroke-linecap:butt;stroke-linejoin:miter;stroke:rgb(0%,0%,0%);stroke-opacity:1;stroke-miterlimit:10;" d="M 171.519531 155.0625 L 162.953125 145.289062 "/>
<path style="fill:none;stroke-width:1.2;stroke-linecap:butt;stroke-linejoin:miter;stroke:rgb(0%,0%,100%);stroke-opacity:1;stroke-miterlimit:10;" d="M 162.953125 145.289062 L 154.386719 135.511719 "/>
<path style="fill:none;stroke-width:1.2;stroke-linecap:butt;stroke-linejoin:miter;stroke:rgb(0%,0%,0%);stroke-opacity:1;stroke-miterlimit:10;" d="M 171.519531 155.0625 L 197.019531 150 "/>
<path style="fill:none;stroke-width:1.2;stroke-linecap:butt;stroke-linejoin:miter;stroke:rgb(0%,0%,100%);stroke-opacity:1;stroke-miterlimit:10;" d="M 154.386719 135.511719 L 141.636719 138.042969 "/>
<path style="fill:none;stroke-width:1.2;stroke-linecap:butt;stroke-linejoin:miter;stroke:rgb(0%,0%,0%);stroke-opacity:1;stroke-miterlimit:10;" d="M 141.636719 138.042969 L 128.886719 140.574219 "/>
<path style="fill:none;stroke-width:1.2;stroke-linecap:butt;stroke-linejoin:miter;stroke:rgb(0%,0%,100%);stroke-opacity:1;stroke-miterlimit:10;" d="M 154.386719 135.511719 L 158.566406 123.203125 "/>
<path style="fill:none;stroke-width:1.2;stroke-linecap:butt;stroke-linejoin:miter;stroke:rgb(0%,0%,0%);stroke-opacity:1;stroke-miterlimit:10;" d="M 158.566406 123.203125 L 162.75 110.894531 "/>
<path style=" stroke:none;fill-rule:nonzero;fill:rgb(100%,100%,100%);fill-opacity:1;" d="M 150.386719 129.011719 L 158.386719 129.011719 L 158.386719 142.011719 L 150.386719 142.011719 Z M 150.386719 129.011719 "/>
<g style="fill:rgb(0%,0%,100%);fill-opacity:1;">
  <use xlink:href="#glyph0-2" x="150.386719" y="138.913086"/>
</g>
<path style="fill:none;stroke-width:1.2;stroke-linecap:butt;stroke-linejoin:miter;stroke:rgb(0%,0%,0%);stroke-opacity:1;stroke-miterlimit:10;" d="M 125.988281 139.589844 L 121.804688 151.898438 "/>
<path style="fill:none;stroke-width:1.2;stroke-linecap:butt;stroke-linejoin:miter;stroke:rgb(100%,0%,0%);stroke-opacity:1;stroke-miterlimit:10;" d="M 121.804688 151.898438 L 117.625 164.207031 "/>
<path style="fill:none;stroke-width:1.2;stroke-linecap:butt;stroke-linejoin:miter;stroke:rgb(0%,0%,0%);stroke-opacity:1;stroke-miterlimit:10;" d="M 131.78125 141.558594 L 127.597656 153.867188 "/>
<path style="fill:none;stroke-width:1.2;stroke-linecap:butt;stroke-linejoin:miter;stroke:rgb(100%,0%,0%);stroke-opacity:1;stroke-miterlimit:10;" d="M 127.597656 153.867188 L 123.414062 166.175781 "/>
<path style="fill:none;stroke-width:1.2;stroke-linecap:butt;stroke-linejoin:miter;stroke:rgb(0%,0%,0%);stroke-opacity:1;stroke-miterlimit:10;" d="M 128.886719 140.574219 L 120.316406 130.800781 "/>
<path style="fill:none;stroke-width:1.2;stroke-linecap:butt;stroke-linejoin:miter;stroke:rgb(0%,0%,100%);stroke-opacity:1;stroke-miterlimit:10;" d="M 120.316406 130.800781 L 111.75 121.023438 "/>
<path style=" stroke:none;fill-rule:nonzero;fill:rgb(100%,100%,100%);fill-opacity:1;" d="M 111.519531 158.691406 L 120.519531 158.691406 L 120.519531 171.691406 L 111.519531 171.691406 Z M 111.519531 158.691406 "/>
<g style="fill:rgb(100%,0%,0%);fill-opacity:1;">
  <use xlink:href="#glyph0-1" x="111.519531" y="168.592773"/>
</g>
<path style="fill:none;stroke-width:1.2;stroke-linecap:butt;stroke-linejoin:miter;stroke:rgb(0%,0%,100%);stroke-opacity:1;stroke-miterlimit:10;" d="M 111.75 121.023438 L 99 123.554688 "/>
<path style="fill:none;stroke-width:1.2;stroke-linecap:butt;stroke-linejoin:miter;stroke:rgb(0%,0%,0%);stroke-opacity:1;stroke-miterlimit:10;" d="M 99 123.554688 L 86.25 126.085938 "/>
<path style=" stroke:none;fill-rule:nonzero;fill:rgb(100%,100%,100%);fill-opacity:1;" d="M 103.75 114.523438 L 120.75 114.523438 L 120.75 127.523438 L 103.75 127.523438 Z M 103.75 114.523438 "/>
<g style="fill:rgb(0%,0%,100%);fill-opacity:1;">
  <use xlink:href="#glyph0-2" x="103.75" y="124.424805"/>
  <use xlink:href="#glyph0-3" x="111.733398" y="124.424805"/>
</g>
<path style="fill:none;stroke-width:1.2;stroke-linecap:butt;stroke-linejoin:miter;stroke:rgb(0%,0%,0%);stroke-opacity:1;stroke-miterlimit:10;" d="M 86.25 126.085938 L 69.113281 106.535156 "/>
<path style="fill:none;stroke-width:1.2;stroke-linecap:butt;stroke-linejoin:miter;stroke:rgb(0%,0%,0%);stroke-opacity:1;stroke-miterlimit:10;" d="M 79.9375 128.164062 L 66.226562 112.519531 "/>
<path style="fill:none;stroke-width:1.2;stroke-linecap:butt;stroke-linejoin:miter;stroke:rgb(0%,0%,0%);stroke-opacity:1;stroke-miterlimit:10;" d="M 77.886719 150.703125 L 86.25 126.085938 "/>
<path style="fill:none;stroke-width:1.2;stroke-linecap:butt;stroke-linejoin:miter;stroke:rgb(0%,0%,0%);stroke-opacity:1;stroke-miterlimit:10;" d="M 69.113281 106.535156 L 43.613281 111.597656 "/>
<path style="fill:none;stroke-width:1.2;stroke-linecap:butt;stroke-linejoin:miter;stroke:rgb(0%,0%,0%);stroke-opacity:1;stroke-miterlimit:10;" d="M 43.613281 111.597656 L 35.25 136.214844 "/>
<path style="fill:none;stroke-width:1.2;stroke-linecap:butt;stroke-linejoin:miter;stroke:rgb(0%,0%,0%);stroke-opacity:1;stroke-miterlimit:10;" d="M 48.570312 116.027344 L 41.878906 135.71875 "/>
<path style="fill:none;stroke-width:1.2;stroke-linecap:butt;stroke-linejoin:miter;stroke:rgb(0%,0%,0%);stroke-opacity:1;stroke-miterlimit:10;" d="M 35.25 136.214844 L 52.386719 155.765625 "/>
<path style="fill:none;stroke-width:1.2;stroke-linecap:butt;stroke-linejoin:miter;stroke:rgb(0%,0%,0%);stroke-opacity:1;stroke-miterlimit:10;" d="M 52.386719 155.765625 L 77.886719 150.703125 "/>
<path style="fill:none;stroke-width:1.2;stroke-linecap:butt;stroke-linejoin:miter;stroke:rgb(0%,0%,0%);stroke-opacity:1;stroke-miterlimit:10;" d="M 53.742188 149.257812 L 74.144531 145.207031 "/>
<path style="fill:none;stroke-width:1.2;stroke-linecap:butt;stroke-linejoin:miter;stroke:rgb(0%,0%,0%);stroke-opacity:1;stroke-miterlimit:10;" d="M 77.886719 150.703125 L 95.019531 170.253906 "/>
<path style="fill:none;stroke-width:1.2;stroke-linecap:butt;stroke-linejoin:miter;stroke:rgb(0%,0%,0%);stroke-opacity:1;stroke-miterlimit:10;" d="M 162.75 110.894531 L 175.5 108.363281 "/>
<path style="fill:none;stroke-width:1.2;stroke-linecap:butt;stroke-linejoin:miter;stroke:rgb(0%,0%,100%);stroke-opacity:1;stroke-miterlimit:10;" d="M 175.5 108.363281 L 188.25 105.832031 "/>
<path style="fill:none;stroke-width:1.2;stroke-linecap:butt;stroke-linejoin:miter;stroke:rgb(0%,0%,0%);stroke-opacity:1;stroke-miterlimit:10;" d="M 164.109375 104.390625 L 174.308594 102.363281 "/>
<path style="fill:none;stroke-width:1.2;stroke-linecap:butt;stroke-linejoin:miter;stroke:rgb(0%,0%,100%);stroke-opacity:1;stroke-miterlimit:10;" d="M 174.308594 102.363281 L 184.507812 100.339844 "/>
<path style="fill:none;stroke-width:1.2;stroke-linecap:butt;stroke-linejoin:miter;stroke:rgb(0%,0%,0%);stroke-opacity:1;stroke-miterlimit:10;" d="M 145.613281 91.34375 L 162.75 110.894531 "/>
<path style="fill:none;stroke-width:1.2;stroke-linecap:butt;stroke-linejoin:miter;stroke:rgb(0%,0%,100%);stroke-opacity:1;stroke-miterlimit:10;" d="M 188.25 105.832031 L 192.433594 93.523438 "/>
<path style="fill:none;stroke-width:1.2;stroke-linecap:butt;stroke-linejoin:miter;stroke:rgb(0%,0%,0%);stroke-opacity:1;stroke-miterlimit:10;" d="M 192.433594 93.523438 L 196.613281 81.21875 "/>
<path style=" stroke:none;fill-rule:nonzero;fill:rgb(100%,100%,100%);fill-opacity:1;" d="M 184.25 99.332031 L 192.25 99.332031 L 192.25 112.332031 L 184.25 112.332031 Z M 184.25 99.332031 "/>
<g style="fill:rgb(0%,0%,100%);fill-opacity:1;">
  <use xlink:href="#glyph0-2" x="184.25" y="109.233398"/>
</g>
<path style="fill:none;stroke-width:1.2;stroke-linecap:butt;stroke-linejoin:miter;stroke:rgb(0%,0%,0%);stroke-opacity:1;stroke-miterlimit:10;" d="M 196.613281 81.21875 L 188.046875 71.441406 "/>
<path style="fill:none;stroke-width:1.2;stroke-linecap:butt;stroke-linejoin:miter;stroke:rgb(0%,0%,100%);stroke-opacity:1;stroke-miterlimit:10;" d="M 188.046875 71.441406 L 179.480469 61.664062 "/>
<path style="fill:none;stroke-width:1.2;stroke-linecap:butt;stroke-linejoin:miter;stroke:rgb(0%,0%,0%);stroke-opacity:1;stroke-miterlimit:10;" d="M 190.300781 83.292969 L 183.445312 75.472656 "/>
<path style="fill:none;stroke-width:1.2;stroke-linecap:butt;stroke-linejoin:miter;stroke:rgb(0%,0%,100%);stroke-opacity:1;stroke-miterlimit:10;" d="M 183.445312 75.472656 L 176.59375 67.652344 "/>
<path style="fill:none;stroke-width:1.2;stroke-linecap:butt;stroke-linejoin:miter;stroke:rgb(0%,0%,0%);stroke-opacity:1;stroke-miterlimit:10;" d="M 196.613281 81.21875 L 209.363281 78.6875 "/>
<path style="fill:none;stroke-width:1.2;stroke-linecap:butt;stroke-linejoin:miter;stroke:rgb(0%,0%,100%);stroke-opacity:1;stroke-miterlimit:10;" d="M 209.363281 78.6875 L 222.113281 76.152344 "/>
<path style="fill:none;stroke-width:1.2;stroke-linecap:butt;stroke-linejoin:miter;stroke:rgb(0%,0%,100%);stroke-opacity:1;stroke-miterlimit:10;" d="M 179.480469 61.664062 L 166.730469 64.195312 "/>
<path style="fill:none;stroke-width:1.2;stroke-linecap:butt;stroke-linejoin:miter;stroke:rgb(0%,0%,0%);stroke-opacity:1;stroke-miterlimit:10;" d="M 166.730469 64.195312 L 153.980469 66.730469 "/>
<path style=" stroke:none;fill-rule:nonzero;fill:rgb(100%,100%,100%);fill-opacity:1;" d="M 175.480469 55.164062 L 183.480469 55.164062 L 183.480469 68.164062 L 175.480469 68.164062 Z M 175.480469 55.164062 "/>
<g style="fill:rgb(0%,0%,100%);fill-opacity:1;">
  <use xlink:href="#glyph0-2" x="175.480469" y="65.06543"/>
</g>
<path style="fill:none;stroke-width:1.2;stroke-linecap:butt;stroke-linejoin:miter;stroke:rgb(0%,0%,0%);stroke-opacity:1;stroke-miterlimit:10;" d="M 153.980469 66.730469 L 145.613281 91.34375 "/>
<path style="fill:none;stroke-width:1.2;stroke-linecap:butt;stroke-linejoin:miter;stroke:rgb(0%,0%,0%);stroke-opacity:1;stroke-miterlimit:10;" d="M 158.933594 71.160156 L 152.242188 90.851562 "/>
<path style=" stroke:none;fill-rule:nonzero;fill:rgb(0%,0%,0%);fill-opacity:1;" d="M 239.25 95.707031 L 225.566406 73.128906 L 218.664062 79.179688 Z M 239.25 95.707031 "/>
<path style=" stroke:none;fill-rule:nonzero;fill:rgb(100%,100%,100%);fill-opacity:1;" d="M 214.113281 69.652344 L 231.113281 69.652344 L 231.113281 82.652344 L 214.113281 82.652344 Z M 214.113281 69.652344 "/>
<g style="fill:rgb(0%,0%,100%);fill-opacity:1;">
  <use xlink:href="#glyph0-2" x="214.113281" y="79.553711"/>
  <use xlink:href="#glyph0-3" x="222.09668" y="79.553711"/>
</g>
<path style="fill:none;stroke-width:1.2;stroke-linecap:butt;stroke-linejoin:miter;stroke:rgb(0%,0%,0%);stroke-opacity:1;stroke-miterlimit:10;" d="M 239.25 95.707031 L 230.886719 120.320312 "/>
<path style="fill:none;stroke-width:1.2;stroke-linecap:butt;stroke-linejoin:miter;stroke:rgb(0%,0%,0%);stroke-opacity:1;stroke-miterlimit:10;" d="M 239.25 95.707031 L 264.75 90.640625 "/>
<path style="fill:none;stroke-width:1.2;stroke-linecap:butt;stroke-linejoin:miter;stroke:rgb(0%,0%,0%);stroke-opacity:1;stroke-miterlimit:10;" d="M 230.886719 120.320312 L 226.703125 132.628906 "/>
<path style="fill:none;stroke-width:1.2;stroke-linecap:butt;stroke-linejoin:miter;stroke:rgb(100%,0%,0%);stroke-opacity:1;stroke-miterlimit:10;" d="M 226.703125 132.628906 L 222.519531 144.9375 "/>
<path style="fill:none;stroke-width:1.2;stroke-linecap:butt;stroke-linejoin:miter;stroke:rgb(0%,0%,0%);stroke-opacity:1;stroke-miterlimit:10;" d="M 230.886719 120.320312 L 206.269531 111.957031 "/>
<path style="fill:none;stroke-width:1.2;stroke-linecap:butt;stroke-linejoin:miter;stroke:rgb(0%,0%,0%);stroke-opacity:1;stroke-miterlimit:10;" d="M 230.886719 120.320312 L 255.5 128.6875 "/>
<path style=" stroke:none;fill-rule:nonzero;fill:rgb(100%,100%,100%);fill-opacity:1;" d="M 205.519531 138.4375 L 222.519531 138.4375 L 222.519531 151.4375 L 205.519531 151.4375 Z M 205.519531 138.4375 "/>
<g style="fill:rgb(100%,0%,0%);fill-opacity:1;">
  <use xlink:href="#glyph0-3" x="205.519531" y="148.338867"/>
  <use xlink:href="#glyph0-1" x="213.543945" y="148.338867"/>
</g>
<path style="fill:none;stroke-width:1.2;stroke-linecap:butt;stroke-linejoin:miter;stroke:rgb(0%,0%,0%);stroke-opacity:1;stroke-miterlimit:10;" d="M 197.019531 150 L 214.15625 169.550781 "/>
<path style="fill:none;stroke-width:1.2;stroke-linecap:butt;stroke-linejoin:miter;stroke:rgb(0%,0%,0%);stroke-opacity:1;stroke-miterlimit:10;" d="M 194.132812 155.988281 L 207.839844 171.628906 "/>
</g>
</svg>

<svg xmlns="http://www.w3.org/2000/svg" xmlns:xlink="http://www.w3.org/1999/xlink" width="300pt" height="300pt" viewBox="0 0 300 300"><defs><symbol overflow="visible"><path d="M.547 1.938V-7.75h5.5v9.688zm.625-.61h4.266v-8.47H1.171zm0 0"/></symbol><symbol overflow="visible" id="a"><path d="M4.328-7.28c-.78 0-1.406.296-1.875.89-.46.585-.687 1.382-.687 2.39 0 1.012.226 1.813.687 2.406.47.586 1.094.875 1.875.875.79 0 1.414-.288 1.875-.874.457-.593.688-1.394.688-2.406 0-1.008-.23-1.805-.687-2.39-.46-.594-1.086-.89-1.875-.89zm0-.892c1.125 0 2.024.383 2.703 1.14C7.708-6.28 8.048-5.27 8.048-4c0 1.262-.34 2.273-1.016 3.03C6.353-.22 5.454.157 4.33.157S2.3-.22 1.625-.97c-.668-.75-1-1.757-1-3.03 0-1.27.332-2.28 1-3.03.676-.76 1.578-1.142 2.703-1.142zm0 0"/></symbol><symbol overflow="visible" id="b"><path d="M1.078-8.016h1.47l3.546 6.704v-6.704h1.062V0H5.688L2.124-6.703V0H1.078zm0 0"/></symbol><symbol overflow="visible" id="c"><path d="M1.078-8.016h1.094v3.282H6.11v-3.282h1.077V0H6.11v-3.813H2.17V0H1.078zm0 0"/></symbol></defs><g><path fill="#fff" d="M0 0h300v300H0z"/><path d="M222.926 213.72l-4.184 12.307" stroke-width="1.2" stroke="#f00" stroke-miterlimit="10" fill="none"/><path d="M218.742 226.027l-4.183 12.31" stroke-width="1.2" stroke="#000" stroke-miterlimit="10" fill="none"/><path d="M222.926 213.72l-8.567-9.78" stroke-width="1.2" stroke="#f00" stroke-miterlimit="10" fill="none"/><path d="M214.36 203.94l-8.57-9.772" stroke-width="1.2" stroke="#000" stroke-miterlimit="10" fill="none"/><path d="M218.926 207.22h9v13h-9zm0 0" fill="#fff"/><use xlink:href="#a" x="218.926" y="217.12" fill="#f00"/><path d="M205.79 194.168l-25.5 5.062M202.047 188.672l-20.4 4.05M214.156 169.55l-8.367 24.618M180.29 199.23l-17.134-19.55M163.156 179.68l8.364-24.618M169.785 179.184l6.692-19.692M171.52 155.063l-8.567-9.774" stroke-width="1.2" stroke="#000" stroke-miterlimit="10" fill="none"/><path d="M162.953 145.29l-8.566-9.778" stroke-width="1.2" stroke="#00f" stroke-miterlimit="10" fill="none"/><path d="M171.52 155.063l25.5-5.063" stroke-width="1.2" stroke="#000" stroke-miterlimit="10" fill="none"/><path d="M154.387 135.512l-12.75 2.53" stroke-width="1.2" stroke="#00f" stroke-miterlimit="10" fill="none"/><path d="M141.637 138.043l-12.75 2.53" stroke-width="1.2" stroke="#000" stroke-miterlimit="10" fill="none"/><path d="M154.387 135.512l4.18-12.31" stroke-width="1.2" stroke="#00f" stroke-miterlimit="10" fill="none"/><path d="M158.566 123.203l4.184-12.308" stroke-width="1.2" stroke="#000" stroke-miterlimit="10" fill="none"/><path d="M150.387 129.012h8v13h-8zm0 0" fill="#fff"/><use xlink:href="#b" x="150.387" y="138.913" fill="#00f"/><path d="M125.988 139.59l-4.183 12.308" stroke-width="1.2" stroke="#000" stroke-miterlimit="10" fill="none"/><path d="M121.805 151.898l-4.18 12.31" stroke-width="1.2" stroke="#f00" stroke-miterlimit="10" fill="none"/><path d="M131.78 141.56l-4.182 12.307" stroke-width="1.2" stroke="#000" stroke-miterlimit="10" fill="none"/><path d="M127.598 153.867l-4.184 12.31" stroke-width="1.2" stroke="#f00" stroke-miterlimit="10" fill="none"/><path d="M128.887 140.574l-8.57-9.773" stroke-width="1.2" stroke="#000" stroke-miterlimit="10" fill="none"/><path d="M120.316 130.8l-8.566-9.777" stroke-width="1.2" stroke="#00f" stroke-miterlimit="10" fill="none"/><path d="M111.52 158.69h9v13h-9zm0 0" fill="#fff"/><use xlink:href="#a" x="111.52" y="168.593" fill="#f00"/><path d="M111.75 121.023L99 123.555" stroke-width="1.2" stroke="#00f" stroke-miterlimit="10" fill="none"/><path d="M99 123.555l-12.75 2.53" stroke-width="1.2" stroke="#000" stroke-miterlimit="10" fill="none"/><path d="M103.75 114.523h17v13h-17zm0 0" fill="#fff"/><g fill="#00f"><use xlink:href="#b" x="103.75" y="124.425"/><use xlink:href="#c" x="111.733" y="124.425"/></g><path d="M86.25 126.086l-17.137-19.55M79.938 128.164l-13.71-15.644M77.887 150.703l8.363-24.617M69.113 106.535l-25.5 5.063M43.613 111.598l-8.363 24.617M48.57 116.027l-6.69 19.692M35.25 136.215l17.137 19.55M52.387 155.766l25.5-5.063M53.742 149.258l20.403-4.05M77.887 150.703l17.133 19.55M162.75 110.895l12.75-2.532" stroke-width="1.2" stroke="#000" stroke-miterlimit="10" fill="none"/><path d="M175.5 108.363l12.75-2.53" stroke-width="1.2" stroke="#00f" stroke-miterlimit="10" fill="none"/><path d="M164.11 104.39l10.2-2.027" stroke-width="1.2" stroke="#000" stroke-miterlimit="10" fill="none"/><path d="M174.31 102.363l10.198-2.023" stroke-width="1.2" stroke="#00f" stroke-miterlimit="10" fill="none"/><path d="M145.613 91.344l17.137 19.55" stroke-width="1.2" stroke="#000" stroke-miterlimit="10" fill="none"/><path d="M188.25 105.832l4.184-12.31" stroke-width="1.2" stroke="#00f" stroke-miterlimit="10" fill="none"/><path d="M192.434 93.523l4.18-12.304" stroke-width="1.2" stroke="#000" stroke-miterlimit="10" fill="none"/><path d="M184.25 99.332h8v13h-8zm0 0" fill="#fff"/><use xlink:href="#b" x="184.25" y="109.233" fill="#00f"/><path d="M196.613 81.22l-8.566-9.78" stroke-width="1.2" stroke="#000" stroke-miterlimit="10" fill="none"/><path d="M188.047 71.44l-8.567-9.776" stroke-width="1.2" stroke="#00f" stroke-miterlimit="10" fill="none"/><path d="M190.3 83.293l-6.855-7.82" stroke-width="1.2" stroke="#000" stroke-miterlimit="10" fill="none"/><path d="M183.445 75.473l-6.85-7.82" stroke-width="1.2" stroke="#00f" stroke-miterlimit="10" fill="none"/><path d="M196.613 81.22l12.75-2.532" stroke-width="1.2" stroke="#000" stroke-miterlimit="10" fill="none"/><path d="M209.363 78.688l12.75-2.536M179.48 61.664l-12.75 2.53" stroke-width="1.2" stroke="#00f" stroke-miterlimit="10" fill="none"/><path d="M166.73 64.195l-12.75 2.535" stroke-width="1.2" stroke="#000" stroke-miterlimit="10" fill="none"/><path d="M175.48 55.164h8v13h-8zm0 0" fill="#fff"/><use xlink:href="#b" x="175.48" y="65.065" fill="#00f"/><path d="M153.98 66.73l-8.367 24.614M158.934 71.16l-6.692 19.692" stroke-width="1.2" stroke="#000" stroke-miterlimit="10" fill="none"/><path d="M239.25 95.707L225.566 73.13l-6.902 6.05zm0 0"/><path d="M214.113 69.652h17v13h-17zm0 0" fill="#fff"/><g fill="#00f"><use xlink:href="#b" x="214.113" y="79.554"/><use xlink:href="#c" x="222.097" y="79.554"/></g><path d="M239.25 95.707l-8.363 24.613M239.25 95.707l25.5-5.066M230.887 120.32l-4.184 12.31" stroke-width="1.2" stroke="#000" stroke-miterlimit="10" fill="none"/><path d="M226.703 132.63l-4.183 12.308" stroke-width="1.2" stroke="#f00" stroke-miterlimit="10" fill="none"/><path d="M230.887 120.32l-24.617-8.363M230.887 120.32l24.613 8.368" stroke-width="1.2" stroke="#000" stroke-miterlimit="10" fill="none"/><path d="M205.52 138.438h17v13h-17zm0 0" fill="#fff"/><g fill="#f00"><use xlink:href="#c" x="205.52" y="148.339"/><use xlink:href="#a" x="213.544" y="148.339"/></g><path d="M197.02 150l17.136 19.55M194.133 155.988l13.707 15.64" stroke-width="1.2" stroke="#000" stroke-miterlimit="10" fill="none"/></g></svg>
